templates/main/source/images/big/gift.svg

<svg xmlns="http://www.w3.org/2000/svg" width="46" height="46" viewBox="0 0 46 46">
  <g fill="none" fill-rule="evenodd">
    <circle cx="23" cy="23" r="23" fill="#8C0014"/>
    <path fill="#FFF" fill-rule="nonzero" d="M22.0909091,23.6666667 L22.0909091,17.94137 L20.3131387,17.94137 C18.64646,17.94137 18.4545455,16.785507 18.4545455,15.6620457 C18.4545455,14.4953514 19.1919203,13.8039907 20.2727273,13.8039907 C21.515151,13.8039907 22.0909091,14.8302466 22.0909091,16.5478171 L22.0909091,17.94137 L23.9090909,17.94137 L23.9090909,16.5478171 C23.9090909,14.8302466 24.4848921,13.8039907 25.7272727,13.8039907 C26.8081228,13.8039907 27.5454545,14.4953514 27.5454545,15.6620457 C27.5454545,16.785507 26.7575978,17.94137 25.111132,17.94137 L23.9090909,17.94137 L23.9090909,23.6666667 L31.1818182,23.6666667 C32.2828811,23.6666667 33,23.2129957 33,22.0570866 L33,19.55095 C33,18.4058722 32.2828811,17.94137 31.1818182,17.94137 L28.3737658,17.94137 C29.0000201,17.3364293 29.3636364,16.5154154 29.3636364,15.5864109 C29.3636364,13.5015434 27.6868872,12 25.7272727,12 C24.2727646,12 23.5151913,12.8641549 23,14.3981461 C22.4848518,12.8641549 21.7272785,12 20.2727273,12 C18.3232408,12 16.6363636,13.5015434 16.6363636,15.5864109 C16.6363636,16.5154154 16.836345,17.3364293 17.4727273,17.94137 L14.8181818,17.94137 C13.7777575,17.94137 13,18.4058722 13,19.55095 L13,22.0570866 C13,23.2129957 13.7272469,23.6666667 14.8181818,23.6666667 L22.0909091,23.6666667 Z M22.0833333,33 L22.0833333,25 L14.6666667,25 L14.6666667,30.8079957 C14.6666667,32.2492152 15.5616523,33 17.0867398,33 L22.0833333,33 Z M23.9166667,25 L23.9166667,33 L28.9132602,33 C30.4383477,33 31.3333333,32.2492152 31.3333333,30.8079957 L31.3333333,25 L23.9166667,25 Z"/>
  </g>
</svg>

<svg xmlns="http://www.w3.org/2000/svg" width="46" height="46" viewBox="0 0 46 46"><g fill="none" fill-rule="evenodd"><circle cx="23" cy="23" r="23" fill="#8C0014"/><path fill="#FFF" fill-rule="nonzero" d="M22.09 23.667V17.94h-1.777c-1.667 0-1.858-1.155-1.858-2.279 0-1.167.737-1.858 1.818-1.858 1.242 0 1.818 1.026 1.818 2.744v1.393h1.818v-1.393c0-1.718.576-2.744 1.818-2.744 1.081 0 1.818.691 1.818 1.858 0 1.124-.787 2.28-2.434 2.28H23.91v5.725h7.273c1.1 0 1.818-.454 1.818-1.61V19.55c0-1.145-.717-1.61-1.818-1.61h-2.808c.626-.605.99-1.426.99-2.355 0-2.084-1.677-3.586-3.637-3.586-1.454 0-2.212.864-2.727 2.398C22.485 12.864 21.727 12 20.273 12c-1.95 0-3.637 1.502-3.637 3.586 0 .93.2 1.75.837 2.355h-2.655c-1.04 0-1.818.465-1.818 1.61v2.506c0 1.156.727 1.61 1.818 1.61h7.273zM22.084 33v-8h-7.416v5.808c0 1.441.895 2.192 2.42 2.192h4.996zm1.834-8v8h4.996c1.525 0 2.42-.75 2.42-2.192V25h-7.416z"/></g></svg>
